X: 3441
M: 2/4
L: 1/16
K: C
|:\
e'2g2g2 fe | g2f2d3c' | d'2f2 f2ef | a2g2e3e' |
e'2e2 e2de | g2f2d3c | Bdfa g3B | c2c2c2 "_D.C."z2 ::\
"TRIO."\


